X:1
T:Lollipop Man, The
R:hp 32
M:4/4
L:1/8
O:English
F:http://banjolin.co.uk/tunes/abcs/lollipopman.abc
K:G
| BA |: GB D2 D2 EF | G2 G2 G2 A2 | BA GA BA GA | B2E2E2 BA |
|GB D2 D2 EF | G2 G2 G2 d2 | ed ef g2 dc |1 B2G2G2 BA:|2 B2G2G4|
|: d2d2 gf ed | Bc de d2 cB | A2 AB cB AG | B2E2E2 BA |
|GB D2 D2 EF | G2 G2 G2 d2 | ed ef g2 dc | B2G2 G4 :|
